X:3
T:Kolo iz Srbije
R:kolo
O:Serbia
Z:id:hn-kolo-3
M:2/4
L:1/16
Q:1/4=120
K:Bphr ^d =c
fagf egfe | ^dfed c2cA | ^dfed c2dc | B2BA Bc^de | 
fagf egfe | ^dfed c2cA | ^dfed c2dc | B2B^G E4 :| 
K:Ador ^d =c
|: A3A e^dc2 | B2c2 BB^GE | e^dc2 A2c2 | B3A ^GEFG | 
   A3A e^dc2 | B2c2 BBBB | e^dc2 A2c2 | BBB^G E4 :| 
K:A
|: AAcA eAcA | f/g/f/e/f2 e2c2 | d2d2 B2cd |1 edc2 cBA2 :|2 edc2 c4 || 
|: AAcA eAcA | eAcA eAcA | d2d2 B2cd |1 edc2 cBA2 :|2 edc2 c4 || 
|: f2f2 d2ef | gfe2 e2c2 | d2d2 B2cd | edc2 cAcA | 
   f2f2 d2ef | gfe2 e2c2 | d2d2 B2cd |1 edc2 c4 :|2 edc2 GABc || 
|: d2z2 c2cA | B4 G2de | fed2 dcB2 | ABcd fdec | 
   d2z2 c2cA | B4 G2de | fed2 dcB2 |1 B2e2 GABc :|2 B2e2 B2E2 || 
K:Bm
|: fgaf agf2 | f2a2 afaf | agf2 f2a2 | afaf a2a2 | 
   fgaf agf2 | f2a2 afaf | agf2 fedc |1 dcB2 BABA :|2 dcB2 BABc || 
K:A
|: d2z2 c2cA | B4 G2de | fed2 dcB2 | ABcd fdec | 
   d2z2 c2cA | B4 G2de | fed2 dcB2 |1 B2e2 GABc :|2 B2e2 B2E2 || 

